flaticon/household/light-bulb-6.svg

<svg xmlns="http://www.w3.org/2000/svg" width="32" height="32" viewBox="0 0 24 24">
    <path d="M9.050781 6.738281C9.050781 6.96875 8.863281 7.15625 8.632812 7.15625 8.398438 7.15625 8.210938 6.96875 8.210938 6.738281 8.210938 6.503906 8.398438 6.316406 8.632812 6.316406 8.863281 6.316406 9.050781 6.503906 9.050781 6.738281zM9.050781 5.472656C9.050781 5.707031 8.863281 5.894531 8.632812 5.894531 8.398438 5.894531 8.210938 5.707031 8.210938 5.472656 8.210938 5.242188 8.398438 5.050781 8.632812 5.050781 8.863281 5.050781 9.050781 5.242188 9.050781 5.472656zM9.050781 4.210938C9.050781 4.441406 8.863281 4.632812 8.632812 4.632812 8.398438 4.632812 8.210938 4.441406 8.210938 4.210938 8.210938 3.976562 8.398438 3.789062 8.632812 3.789062 8.863281 3.789062 9.050781 3.976562 9.050781 4.210938zM9.050781 2.949219C9.050781 3.179688 8.863281 3.367188 8.632812 3.367188 8.398438 3.367188 8.210938 3.179688 8.210938 2.949219 8.210938 2.714844 8.398438 2.527344 8.632812 2.527344 8.863281 2.527344 9.050781 2.714844 9.050781 2.949219zM9.050781 8C9.050781 8.234375 8.863281 8.421875 8.632812 8.421875 8.398438 8.421875 8.210938 8.234375 8.210938 8 8.210938 7.765625 8.398438 7.578125 8.632812 7.578125 8.863281 7.578125 9.050781 7.765625 9.050781 8zM9.050781 9.261719C9.050781 9.496094 8.863281 9.683594 8.632812 9.683594 8.398438 9.683594 8.210938 9.496094 8.210938 9.261719 8.210938 9.03125 8.398438 8.84375 8.632812 8.84375 8.863281 8.84375 9.050781 9.03125 9.050781 9.261719zM9.050781 10.527344C9.050781 10.757812 8.863281 10.949219 8.632812 10.949219 8.398438 10.949219 8.210938 10.757812 8.210938 10.527344 8.210938 10.292969 8.398438 10.105469 8.632812 10.105469 8.863281 10.105469 9.050781 10.292969 9.050781 10.527344zM9.050781 11.789062C9.050781 12.023438 8.863281 12.210938 8.632812 12.210938 8.398438 12.210938 8.210938 12.023438 8.210938 11.789062 8.210938 11.558594 8.398438 11.367188 8.632812 11.367188 8.863281 11.367188 9.050781 11.558594 9.050781 11.789062zM9.050781 13.050781C9.050781 13.285156 8.863281 13.472656 8.632812 13.472656 8.398438 13.472656 8.210938 13.285156 8.210938 13.050781 8.210938 12.820312 8.398438 12.632812 8.632812 12.632812 8.863281 12.632812 9.050781 12.820312 9.050781 13.050781zM9.050781 14.316406C9.050781 14.546875 8.863281 14.738281 8.632812 14.738281 8.398438 14.738281 8.210938 14.546875 8.210938 14.316406 8.210938 14.082031 8.398438 13.894531 8.632812 13.894531 8.863281 13.894531 9.050781 14.082031 9.050781 14.316406zM12.421875 6.738281C12.421875 6.96875 12.234375 7.15625 12 7.15625 11.765625 7.15625 11.578125 6.96875 11.578125 6.738281 11.578125 6.503906 11.765625 6.316406 12 6.316406 12.234375 6.316406 12.421875 6.503906 12.421875 6.738281zM12.421875 5.472656C12.421875 5.707031 12.234375 5.894531 12 5.894531 11.765625 5.894531 11.578125 5.707031 11.578125 5.472656 11.578125 5.242188 11.765625 5.050781 12 5.050781 12.234375 5.050781 12.421875 5.242188 12.421875 5.472656zM12.421875 4.210938C12.421875 4.441406 12.234375 4.632812 12 4.632812 11.765625 4.632812 11.578125 4.441406 11.578125 4.210938 11.578125 3.976562 11.765625 3.789062 12 3.789062 12.234375 3.789062 12.421875 3.976562 12.421875 4.210938zM12.421875 2.949219C12.421875 3.179688 12.234375 3.367188 12 3.367188 11.765625 3.367188 11.578125 3.179688 11.578125 2.949219 11.578125 2.714844 11.765625 2.527344 12 2.527344 12.234375 2.527344 12.421875 2.714844 12.421875 2.949219zM12.421875 8C12.421875 8.234375 12.234375 8.421875 12 8.421875 11.765625 8.421875 11.578125 8.234375 11.578125 8 11.578125 7.765625 11.765625 7.578125 12 7.578125 12.234375 7.578125 12.421875 7.765625 12.421875 8zM12.421875 9.261719C12.421875 9.496094 12.234375 9.683594 12 9.683594 11.765625 9.683594 11.578125 9.496094 11.578125 9.261719 11.578125 9.03125 11.765625 8.84375 12 8.84375 12.234375 8.84375 12.421875 9.03125 12.421875 9.261719zM12.421875 10.527344C12.421875 10.757812 12.234375 10.949219 12 10.949219 11.765625 10.949219 11.578125 10.757812 11.578125 10.527344 11.578125 10.292969 11.765625 10.105469 12 10.105469 12.234375 10.105469 12.421875 10.292969 12.421875 10.527344zM12.421875 11.789062C12.421875 12.023438 12.234375 12.210938 12 12.210938 11.765625 12.210938 11.578125 12.023438 11.578125 11.789062 11.578125 11.558594 11.765625 11.367188 12 11.367188 12.234375 11.367188 12.421875 11.558594 12.421875 11.789062zM12.421875 13.050781C12.421875 13.285156 12.234375 13.472656 12 13.472656 11.765625 13.472656 11.578125 13.285156 11.578125 13.050781 11.578125 12.820312 11.765625 12.632812 12 12.632812 12.234375 12.632812 12.421875 12.820312 12.421875 13.050781zM12.421875 14.316406C12.421875 14.546875 12.234375 14.738281 12 14.738281 11.765625 14.738281 11.578125 14.546875 11.578125 14.316406 11.578125 14.082031 11.765625 13.894531 12 13.894531 12.234375 13.894531 12.421875 14.082031 12.421875 14.316406zM15.789062 6.738281C15.789062 6.96875 15.601562 7.15625 15.367188 7.15625 15.136719 7.15625 14.949219 6.96875 14.949219 6.738281 14.949219 6.503906 15.136719 6.316406 15.367188 6.316406 15.601562 6.316406 15.789062 6.503906 15.789062 6.738281zM15.789062 5.472656C15.789062 5.707031 15.601562 5.894531 15.367188 5.894531 15.136719 5.894531 14.949219 5.707031 14.949219 5.472656 14.949219 5.242188 15.136719 5.050781 15.367188 5.050781 15.601562 5.050781 15.789062 5.242188 15.789062 5.472656zM15.789062 4.210938C15.789062 4.441406 15.601562 4.632812 15.367188 4.632812 15.136719 4.632812 14.949219 4.441406 14.949219 4.210938 14.949219 3.976562 15.136719 3.789062 15.367188 3.789062 15.601562 3.789062 15.789062 3.976562 15.789062 4.210938zM15.789062 2.949219C15.789062 3.179688 15.601562 3.367188 15.367188 3.367188 15.136719 3.367188 14.949219 3.179688 14.949219 2.949219 14.949219 2.714844 15.136719 2.527344 15.367188 2.527344 15.601562 2.527344 15.789062 2.714844 15.789062 2.949219zM15.789062 8C15.789062 8.234375 15.601562 8.421875 15.367188 8.421875 15.136719 8.421875 14.949219 8.234375 14.949219 8 14.949219 7.765625 15.136719 7.578125 15.367188 7.578125 15.601562 7.578125 15.789062 7.765625 15.789062 8zM15.789062 9.261719C15.789062 9.496094 15.601562 9.683594 15.367188 9.683594 15.136719 9.683594 14.949219 9.496094 14.949219 9.261719 14.949219 9.03125 15.136719 8.84375 15.367188 8.84375 15.601562 8.84375 15.789062 9.03125 15.789062 9.261719zM15.789062 10.527344C15.789062 10.757812 15.601562 10.949219 15.367188 10.949219 15.136719 10.949219 14.949219 10.757812 14.949219 10.527344 14.949219 10.292969 15.136719 10.105469 15.367188 10.105469 15.601562 10.105469 15.789062 10.292969 15.789062 10.527344zM15.789062 11.789062C15.789062 12.023438 15.601562 12.210938 15.367188 12.210938 15.136719 12.210938 14.949219 12.023438 14.949219 11.789062 14.949219 11.558594 15.136719 11.367188 15.367188 11.367188 15.601562 11.367188 15.789062 11.558594 15.789062 11.789062zM15.789062 13.050781C15.789062 13.285156 15.601562 13.472656 15.367188 13.472656 15.136719 13.472656 14.949219 13.285156 14.949219 13.050781 14.949219 12.820312 15.136719 12.632812 15.367188 12.632812 15.601562 12.632812 15.789062 12.820312 15.789062 13.050781zM15.789062 14.316406C15.789062 14.546875 15.601562 14.738281 15.367188 14.738281 15.136719 14.738281 14.949219 14.546875 14.949219 14.316406 14.949219 14.082031 15.136719 13.894531 15.367188 13.894531 15.601562 13.894531 15.789062 14.082031 15.789062 14.316406zM15.789062 14.316406"/>
    <path d="M 17.472656 14.757812 L 17.472656 0.84375 L 16.632812 0.84375 L 16.632812 0.421875 C 16.632812 0.1875 16.445312 0 16.210938 0 C 15.976562 0 15.789062 0.1875 15.789062 0.421875 L 15.789062 0.84375 L 14.949219 0.84375 L 14.949219 0.421875 C 14.949219 0.1875 14.757812 0 14.527344 0 C 14.292969 0 14.105469 0.1875 14.105469 0.421875 L 14.105469 0.84375 L 13.261719 0.84375 L 13.261719 0.421875 C 13.261719 0.1875 13.074219 0 12.84375 0 C 12.609375 0 12.421875 0.1875 12.421875 0.421875 L 12.421875 0.84375 L 11.578125 0.84375 L 11.578125 0.421875 C 11.578125 0.1875 11.390625 0 11.15625 0 C 10.925781 0 10.738281 0.1875 10.738281 0.421875 L 10.738281 0.84375 L 9.894531 0.84375 L 9.894531 0.421875 C 9.894531 0.1875 9.707031 0 9.472656 0 C 9.242188 0 9.050781 0.1875 9.050781 0.421875 L 9.050781 0.84375 L 8.210938 0.84375 L 8.210938 0.421875 C 8.210938 0.1875 8.023438 0 7.789062 0 C 7.554688 0 7.367188 0.1875 7.367188 0.421875 L 7.367188 0.84375 L 6.527344 0.84375 L 6.527344 14.757812 C 6.046875 14.847656 5.683594 15.269531 5.683594 15.773438 L 5.683594 16.796875 C 5.683594 18.289062 6.78125 19.523438 8.210938 19.75 L 8.210938 22.316406 L 9.261719 22.316406 L 10.527344 24 L 13.472656 24 L 14.738281 22.316406 L 15.789062 22.316406 L 15.789062 19.75 C 17.21875 19.523438 18.316406 18.289062 18.316406 16.796875 L 18.316406 15.773438 C 18.316406 15.269531 17.953125 14.847656 17.472656 14.757812 Z M 14.105469 1.683594 L 16.632812 1.683594 L 16.632812 14.738281 L 14.105469 14.738281 Z M 10.738281 1.683594 L 13.261719 1.683594 L 13.261719 14.738281 L 10.738281 14.738281 Z M 7.367188 1.683594 L 9.894531 1.683594 L 9.894531 14.738281 L 7.367188 14.738281 Z M 13.050781 23.15625 L 10.949219 23.15625 L 10.316406 22.316406 L 13.683594 22.316406 Z M 14.949219 21.472656 L 9.050781 21.472656 L 9.050781 21.050781 L 14.949219 21.050781 Z M 9.050781 20.210938 L 9.050781 19.789062 L 14.949219 19.789062 L 14.949219 20.210938 Z M 17.472656 16.796875 C 17.472656 17.980469 16.507812 18.949219 15.324219 18.949219 L 8.675781 18.949219 C 7.492188 18.949219 6.527344 17.980469 6.527344 16.796875 L 6.527344 15.773438 C 6.527344 15.667969 6.613281 15.578125 6.722656 15.578125 L 17.277344 15.578125 C 17.386719 15.578125 17.472656 15.667969 17.472656 15.773438 Z M 17.472656 16.796875"/>
</svg>

<svg xmlns="http://www.w3.org/2000/svg" width="32" height="32" viewBox="0 0 24 24">
    <path d="M9.05 6.738a.42.42 0 1 1-.418-.422.42.42 0 0 1 .419.422zm0 0M9.05 5.473a.42.42 0 1 1-.84 0c0-.23.188-.422.423-.422.23 0 .418.191.418.422zm0 0M9.05 4.21c0 .231-.187.423-.417.423a.423.423 0 0 1 0-.844.42.42 0 0 1 .418.422zm0 0M9.05 2.95a.42.42 0 1 1-.418-.422.42.42 0 0 1 .419.421zm0 0M9.05 8a.42.42 0 1 1-.84 0 .42.42 0 1 1 .84 0zm0 0M9.05 9.262a.42.42 0 1 1-.838.005.42.42 0 0 1 .839-.005zm0 0M9.05 10.527c0 .23-.187.422-.417.422a.423.423 0 0 1 0-.844.42.42 0 0 1 .418.422zm0 0M9.05 11.79a.42.42 0 1 1-.84 0c0-.231.188-.423.423-.423.23 0 .418.192.418.422zm0 0M9.05 13.05a.42.42 0 1 1-.838.006.42.42 0 0 1 .839-.005zm0 0M9.05 14.316c0 .23-.187.422-.417.422a.423.423 0 0 1 0-.843.42.42 0 0 1 .418.421zm0 0M12.422 6.738a.42.42 0 0 1-.422.418.42.42 0 1 1 0-.84.42.42 0 0 1 .422.422zm0 0M12.422 5.473a.42.42 0 0 1-.422.422.423.423 0 1 1 .422-.422zm0 0M12.422 4.21a.423.423 0 1 1-.845 0 .423.423 0 0 1 .845 0zm0 0M12.422 2.95a.42.42 0 0 1-.422.417.42.42 0 1 1 0-.84.42.42 0 0 1 .422.422zm0 0M12.422 8a.42.42 0 0 1-.422.422.42.42 0 0 1-.422-.422.42.42 0 0 1 .422-.422.42.42 0 0 1 .422.422zm0 0M12.422 9.262a.42.42 0 0 1-.422.422.42.42 0 1 1 0-.84.42.42 0 0 1 .422.418zm0 0M12.422 10.527a.423.423 0 1 1-.845-.001.423.423 0 0 1 .845.001zm0 0M12.422 11.79a.42.42 0 0 1-.422.42.423.423 0 1 1 .422-.422zm0 0M12.422 13.05a.42.42 0 0 1-.422.423.42.42 0 1 1 0-.84.42.42 0 0 1 .422.418zm0 0M12.422 14.316a.423.423 0 1 1-.845-.001.423.423 0 0 1 .845.001zm0 0M15.79 6.738a.42.42 0 1 1-.84-.002.42.42 0 0 1 .84.002zm0 0M15.79 5.473a.42.42 0 1 1-.84 0c0-.23.187-.422.417-.422.235 0 .422.191.422.422zm0 0M15.79 4.21c0 .231-.188.423-.423.423a.422.422 0 0 1 0-.844.42.42 0 0 1 .422.422zm0 0M15.79 2.95a.42.42 0 1 1-.84-.003.42.42 0 0 1 .84.002zm0 0M15.79 8a.42.42 0 1 1-.84 0 .42.42 0 1 1 .84 0zm0 0M15.79 9.262a.42.42 0 1 1-.841.003.42.42 0 0 1 .84-.003zm0 0M15.79 10.527c0 .23-.188.422-.423.422a.422.422 0 0 1 0-.844.42.42 0 0 1 .422.422zm0 0M15.79 11.79a.42.42 0 1 1-.84 0c0-.231.187-.423.417-.423.235 0 .422.192.422.422zm0 0M15.79 13.05a.42.42 0 1 1-.841.004.42.42 0 0 1 .84-.003zm0 0M15.79 14.316c0 .23-.188.422-.423.422a.422.422 0 0 1 0-.843.42.42 0 0 1 .422.421zm0 0"/>
    <path d="M17.473 14.758V.844h-.84V.422A.42.42 0 0 0 16.21 0a.42.42 0 0 0-.422.422v.422h-.84V.422a.423.423 0 0 0-.844 0v.422h-.843V.422a.42.42 0 1 0-.84 0v.422h-.844V.422a.42.42 0 1 0-.84 0v.422h-.843V.422a.423.423 0 0 0-.844 0v.422h-.84V.422A.42.42 0 0 0 7.789 0a.42.42 0 0 0-.422.422v.422h-.84v13.914c-.48.09-.843.512-.843 1.015v1.024A2.996 2.996 0 0 0 8.21 19.75v2.566h1.05L10.528 24h2.946l1.265-1.684h1.051V19.75a2.996 2.996 0 0 0 2.527-2.953v-1.024c0-.503-.363-.925-.843-1.015zM14.105 1.684h2.528v13.054h-2.528zm-3.367 0h2.524v13.054h-2.524zm-3.37 0h2.527v13.054H7.367zm5.683 21.472h-2.102l-.633-.84h3.368zm1.898-1.683H9.051v-.422h5.898zM9.051 20.21v-.422h5.898v.422zm8.422-3.414a2.156 2.156 0 0 1-2.149 2.152H8.676a2.156 2.156 0 0 1-2.149-2.152v-1.024c0-.105.086-.195.196-.195h10.554c.11 0 .196.09.196.195zm0 0"/>
</svg>
